T: Peacock Follow The Hen
M: 9/8
L: 1/8
K: Edor
G2B G/F/E/F/G/E/ G/F/E/F/G/E/|F2A AdA F2D:||G2B d/c/B/c/d/B/ GB/c/d/A/|F2A AdA F2D:||G/F/G/A/B GEd GEd|FDd FDd F2D:||dGd EB/c/d/B/ dGB|c2A AdA F2D:||G2B G/E/G/B/d/B/ G/E/G/B/d/B/|F/D/F/A/d/A/ F/d/F/A/d/A/ F2D:||
